X: 7476
T:Mrs McLeod of Raasay
R:Reel
O:Scotland
M:4/4
K:Amix
A2a2 fefa|c2cB cdcB|A2a2 fefa|B2BA BdcB|\
A2a2 fefa|c2cB c2e2|
fgfe cefg|afec BdcB::\
ABcd ecAB|c2cB cdcB|
A2cA eAcA|B2BA BdcB|\
ABcd ecAB|c2cB c2e2|fgfe cefg|afec B2:|
